src/lib/packages/icons/src/assets/line/shopping-basket.svg

<svg width="24" height="24" viewBox="0 0 24 24" fill="none" xmlns="http://www.w3.org/2000/svg">
<path d="M10.7679 14.5V17.5C10.7679 17.914 10.4319 18.25 10.0179 18.25C9.60394 18.25 9.26794 17.914 9.26794 17.5V14.5C9.26794 14.086 9.60394 13.75 10.0179 13.75C10.4319 13.75 10.7679 14.086 10.7679 14.5ZM14.0179 13.75C13.6039 13.75 13.2679 14.086 13.2679 14.5V17.5C13.2679 17.914 13.6039 18.25 14.0179 18.25C14.4319 18.25 14.7679 17.914 14.7679 17.5V14.5C14.7679 14.086 14.4319 13.75 14.0179 13.75ZM20.2271 11.448L19.535 18.373C19.308 20.645 18.088 21.75 15.804 21.75H8.23401C5.95001 21.75 4.72905 20.646 4.50305 18.373L3.81299 11.469C2.89199 11.024 2.25098 10.089 2.25098 9C2.25098 7.483 3.48398 6.25 5.00098 6.25H7.15796L9.35901 2.612C9.57301 2.258 10.032 2.144 10.389 2.359C10.743 2.573 10.857 3.03501 10.642 3.38901L8.91101 6.25101H15.062L13.3571 3.385C13.1451 3.029 13.262 2.569 13.618 2.357C13.974 2.144 14.434 2.263 14.646 2.618L16.808 6.252H19C20.517 6.252 21.75 7.485 21.75 9.002C21.75 10.073 21.1261 10.995 20.2271 11.448ZM3.75 9C3.75 9.689 4.311 10.25 5 10.25H19C19.689 10.25 20.25 9.689 20.25 9C20.25 8.311 19.689 7.75 19 7.75H5C4.311 7.75 3.75 8.311 3.75 9ZM18.6899 11.75H5.34705L5.99402 18.224C6.12602 19.538 6.52103 20.25 8.23303 20.25H15.803C17.506 20.25 17.913 19.507 18.042 18.224L18.6899 11.75Z" fill="currentColor"/>
</svg>

<svg xmlns="http://www.w3.org/2000/svg" width="24" height="24" fill="none"><path fill="currentColor" d="M10.768 14.5v3a.75.75 0 0 1-1.5 0v-3a.75.75 0 0 1 1.5 0Zm3.25-.75a.75.75 0 0 0-.75.75v3a.75.75 0 0 0 1.5 0v-3a.75.75 0 0 0-.75-.75Zm6.21-2.302-.693 6.925c-.227 2.272-1.447 3.377-3.731 3.377h-7.57c-2.284 0-3.505-1.104-3.731-3.377l-.69-6.904A2.745 2.745 0 0 1 2.251 9a2.752 2.752 0 0 1 2.75-2.75h2.157l2.201-3.638a.75.75 0 1 1 1.283.777L8.911 6.251h6.151l-1.705-2.866a.75.75 0 1 1 1.289-.767l2.162 3.634H19a2.752 2.752 0 0 1 2.75 2.75 2.743 2.743 0 0 1-1.523 2.446ZM3.75 9c0 .689.561 1.25 1.25 1.25h14c.689 0 1.25-.561 1.25-1.25S19.689 7.75 19 7.75H5c-.689 0-1.25.561-1.25 1.25Zm14.94 2.75H5.347l.647 6.474c.132 1.314.527 2.026 2.239 2.026h7.57c1.703 0 2.11-.743 2.239-2.026l.648-6.474Z"/></svg>
